Newaita/actions/symbolic/document-print-symbolic.svg

<svg height="16" viewBox="0 0 16 16" width="16" xmlns="http://www.w3.org/2000/svg"><g fill="#424242"><path d="m11.90625 3.101562h-7.9375c-.363281 0-.660156-.296874-.660156-.660156v-.664062c0-.363282.296875-.660156.660156-.660156h7.9375c.367188 0 .664062.296874.664062.660156v.664062c0 .363282-.296874.660156-.664062.660156zm0 0"/><path d="m12.570312 2.109375v2.976563h-1.984374v-2.976563zm0 0"/><path d="m5.292969 2.109375v2.976563h-1.984375v-2.976563zm0 0"/><path d="m1.652344 5.769531c-.363282 0-.660156.296875-.660156.664063v5.269531c0 .363281.296874.660156.660156.660156h.664062v-1.324219c0-.367187.292969-.660156.660156-.660156h9.921876c.367187 0 .664062.292969.664062.660156v1.324219h.660156c.367188 0 .660156-.296875.660156-.660156v-5.269531c0-.367188-.292968-.664063-.660156-.664063zm8.601562 1.632813c.367188 0 .660156.292968.660156.660156s-.292968.664062-.660156.664062c-.367187 0-.660156-.296874-.660156-.664062s.292969-.660156.660156-.660156zm2.316406 0c.363282 0 .660157.292968.660157.660156s-.296875.664062-.660157.664062c-.367187 0-.664062-.296874-.664062-.664062s.296875-.660156.664062-.660156zm0 0"/><path d="m11.90625 12.363281h-7.9375c-.363281 0-.660156.296875-.660156.660157v.664062c0 .363281.296875.660156.660156.660156h7.9375c.367188 0 .664062-.296875.664062-.660156v-.664062c0-.363282-.296874-.660157-.664062-.660157zm0 0"/><path d="m12.570312 13.355469v-2.316407h-1.984374v2.316407zm0 0"/><path d="m5.292969 13.355469v-2.316407h-1.984375v2.316407zm0 0"/></g></svg>

<?xml version="1.0" encoding="UTF-8"?>
<svg xmlns="http://www.w3.org/2000/svg" xmlns:xlink="http://www.w3.org/1999/xlink" width="16px" height="16px" viewBox="0 0 16 16" version="1.1">
<g id="surface1">
<path style=" stroke:none;fill-rule:nonzero;fill:rgb(25.882354%,25.882354%,25.882354%);fill-opacity:1;" d="M 11.90625 3.101562 L 3.96875 3.101562 C 3.605469 3.101562 3.308594 2.804688 3.308594 2.441406 L 3.308594 1.777344 C 3.308594 1.414062 3.605469 1.117188 3.96875 1.117188 L 11.90625 1.117188 C 12.273438 1.117188 12.570312 1.414062 12.570312 1.777344 L 12.570312 2.441406 C 12.570312 2.804688 12.273438 3.101562 11.90625 3.101562 Z M 11.90625 3.101562 "/>
<path style=" stroke:none;fill-rule:nonzero;fill:rgb(25.882354%,25.882354%,25.882354%);fill-opacity:1;" d="M 12.570312 2.109375 L 12.570312 5.085938 L 10.585938 5.085938 L 10.585938 2.109375 Z M 12.570312 2.109375 "/>
<path style=" stroke:none;fill-rule:nonzero;fill:rgb(25.882354%,25.882354%,25.882354%);fill-opacity:1;" d="M 5.292969 2.109375 L 5.292969 5.085938 L 3.308594 5.085938 L 3.308594 2.109375 Z M 5.292969 2.109375 "/>
<path style=" stroke:none;fill-rule:nonzero;fill:rgb(25.882354%,25.882354%,25.882354%);fill-opacity:1;" d="M 1.652344 5.769531 C 1.289062 5.769531 0.992188 6.066406 0.992188 6.433594 L 0.992188 11.703125 C 0.992188 12.066406 1.289062 12.363281 1.652344 12.363281 L 2.316406 12.363281 L 2.316406 11.039062 C 2.316406 10.671875 2.609375 10.378906 2.976562 10.378906 L 12.898438 10.378906 C 13.265625 10.378906 13.5625 10.671875 13.5625 11.039062 L 13.5625 12.363281 L 14.222656 12.363281 C 14.589844 12.363281 14.882812 12.066406 14.882812 11.703125 L 14.882812 6.433594 C 14.882812 6.066406 14.589844 5.769531 14.222656 5.769531 Z M 10.253906 7.402344 C 10.621094 7.402344 10.914062 7.695312 10.914062 8.0625 C 10.914062 8.429688 10.621094 8.726562 10.253906 8.726562 C 9.886719 8.726562 9.59375 8.429688 9.59375 8.0625 C 9.59375 7.695312 9.886719 7.402344 10.253906 7.402344 Z M 12.570312 7.402344 C 12.933594 7.402344 13.230469 7.695312 13.230469 8.0625 C 13.230469 8.429688 12.933594 8.726562 12.570312 8.726562 C 12.203125 8.726562 11.90625 8.429688 11.90625 8.0625 C 11.90625 7.695312 12.203125 7.402344 12.570312 7.402344 Z M 12.570312 7.402344 "/>
<path style=" stroke:none;fill-rule:nonzero;fill:rgb(25.882354%,25.882354%,25.882354%);fill-opacity:1;" d="M 11.90625 12.363281 L 3.96875 12.363281 C 3.605469 12.363281 3.308594 12.660156 3.308594 13.023438 L 3.308594 13.6875 C 3.308594 14.050781 3.605469 14.347656 3.96875 14.347656 L 11.90625 14.347656 C 12.273438 14.347656 12.570312 14.050781 12.570312 13.6875 L 12.570312 13.023438 C 12.570312 12.660156 12.273438 12.363281 11.90625 12.363281 Z M 11.90625 12.363281 "/>
<path style=" stroke:none;fill-rule:nonzero;fill:rgb(25.882354%,25.882354%,25.882354%);fill-opacity:1;" d="M 12.570312 13.355469 L 12.570312 11.039062 L 10.585938 11.039062 L 10.585938 13.355469 Z M 12.570312 13.355469 "/>
<path style=" stroke:none;fill-rule:nonzero;fill:rgb(25.882354%,25.882354%,25.882354%);fill-opacity:1;" d="M 5.292969 13.355469 L 5.292969 11.039062 L 3.308594 11.039062 L 3.308594 13.355469 Z M 5.292969 13.355469 "/>
</g>
</svg>
